X: 40
T:Hare in the Corn
R:Jig
D:From Planxty album
Z:Added by Alf Warnock
M:6/8
L:1/8
K:D
A|FAA AFA|BdB AFE|~F3 EDE|FDD D2A|
FAA AFA|BdB AFA|Bcd ecA|ded d2:|
|:e|f2f fed|g2g gfe|f2f fed|a2a bag|
f2f fed|gee ecA|Bcd ecA|ded d2:|

